svg/l/MP.svg

<svg width="32" height="24" viewBox="0 0 32 24" fill="none" xmlns="http://www.w3.org/2000/svg">
<g clip-path="url(#clip0_270_67575)">
<rect width="32" height="24" fill="white"/>
<path fill-rule="evenodd" clip-rule="evenodd" d="M0 0H34V24H0V0Z" fill="#2993EC"/>
<path fill-rule="evenodd" clip-rule="evenodd" d="M6.21277 11.5833C6.21277 16.8761 10.5947 21.1667 16 21.1667C21.4053 21.1667 25.7872 16.8761 25.7872 11.5833C25.7872 6.2906 21.4053 2 16 2C10.5947 2 6.21277 6.2906 6.21277 11.5833ZM23.6596 11.5833C23.6596 15.7255 20.2303 19.0833 16 19.0833C11.7697 19.0833 8.34043 15.7255 8.34043 11.5833C8.34043 7.4412 11.7697 4.08333 16 4.08333C20.2303 4.08333 23.6596 7.4412 23.6596 11.5833Z" fill="#F1F9FF"/>
<path fill-rule="evenodd" clip-rule="evenodd" d="M7.06384 11.5833C7.06384 16.4158 11.0647 20.3333 16 20.3333C20.9353 20.3333 24.9362 16.4158 24.9362 11.5833C24.9362 6.75084 20.9353 2.83333 16 2.83333C11.0647 2.83333 7.06384 6.75084 7.06384 11.5833ZM24.5107 11.5833C24.5107 16.1857 20.7003 19.9167 16 19.9167C11.2997 19.9167 7.48937 16.1857 7.48937 11.5833C7.48937 6.98095 11.2997 3.24999 16 3.24999C20.7003 3.24999 24.5107 6.98095 24.5107 11.5833Z" fill="#E31D1C"/>
<path fill-rule="evenodd" clip-rule="evenodd" d="M16 2.20833C15.8921 2.431 15.8382 2.74743 15.8382 3.1576C15.8382 3.56777 15.6793 3.97836 15.3617 4.38936C15.3027 3.93686 15.2732 3.52627 15.2732 3.1576C15.2732 2.78893 15.5154 2.4725 16 2.20833ZM18.2362 2.54695C18.081 2.73965 17.9573 3.03583 17.865 3.43549C17.7727 3.83515 17.5256 4.19948 17.1237 4.5285C17.168 4.07432 17.2316 3.66762 17.3145 3.3084C17.3974 2.94917 17.7047 2.69536 18.2362 2.54695ZM19.773 4.16787C19.9592 3.8024 20.1509 3.54495 20.3481 3.39553C19.7965 3.41093 19.4369 3.58288 19.2696 3.91137C19.1022 4.23986 18.9421 4.61909 18.7892 5.04906C19.2588 4.82706 19.5868 4.53333 19.773 4.16787ZM22.1912 4.68399C21.9654 4.78523 21.7207 4.99295 21.457 5.30716C21.1934 5.62137 20.8078 5.83381 20.3002 5.94447C20.5459 5.55991 20.7872 5.22642 21.0242 4.944C21.2612 4.66158 21.6502 4.57491 22.1912 4.68399ZM22.8279 6.79609C23.1555 6.54924 23.4407 6.40189 23.6834 6.35404C23.1808 6.12606 22.7823 6.123 22.4879 6.34488C22.1935 6.56675 21.8833 6.83741 21.5574 7.15685C22.0769 7.16319 22.5003 7.04294 22.8279 6.79609ZM24.7466 8.33624C24.4994 8.32395 24.1871 8.39793 23.8095 8.5582C23.432 8.71847 22.9919 8.73269 22.4895 8.60088C22.883 8.36976 23.2494 8.18218 23.5888 8.03813C23.9281 7.89408 24.3141 7.99345 24.7466 8.33624ZM24.3524 10.4909C24.7564 10.4197 25.0773 10.4178 25.3154 10.4854C24.9711 10.0541 24.6174 9.87047 24.2543 9.93449C23.8912 9.99851 23.492 10.0989 23.0566 10.2355C23.5166 10.477 23.9485 10.5621 24.3524 10.4909ZM6.08398 9.76966C6.28454 9.91456 6.58679 10.0226 6.99073 10.0939C7.39467 10.1651 7.77144 10.3928 8.12104 10.777C7.66517 10.7565 7.2557 10.7143 6.89263 10.6503C6.52955 10.5862 6.26001 10.2927 6.08398 9.76966ZM7.62116 8.18708C7.24359 8.02681 6.9734 7.85353 6.81058 7.66722C6.86443 8.21645 7.06104 8.5631 7.4004 8.70715C7.73977 8.8512 8.12924 8.98448 8.56883 9.10697C8.31461 8.65398 7.99873 8.34735 7.62116 8.18708ZM8.02712 5.77359C8.14003 5.99375 8.36028 6.22726 8.68786 6.47411C9.01544 6.72095 9.24776 7.0949 9.38483 7.59594C8.98794 7.37073 8.64228 7.14719 8.34784 6.92532C8.05341 6.70345 7.9465 6.31954 8.02712 5.77359ZM10.125 5.04801C9.86132 4.7338 9.69925 4.45673 9.63876 4.21681C9.43739 4.73063 9.4552 5.12875 9.69218 5.41117C9.92915 5.69359 10.2157 5.98916 10.5517 6.29787C10.5309 5.77884 10.3886 5.36222 10.125 5.04801ZM11.5726 3.06557C11.5776 3.31295 11.6732 3.61937 11.8594 3.98483C12.0456 4.3503 12.0905 4.78824 11.9941 5.29866C11.7361 4.92226 11.5234 4.56982 11.356 4.24133C11.1886 3.91284 11.2608 3.52092 11.5726 3.06557ZM13.801 3.3448C13.7087 2.94514 13.6901 2.62469 13.7451 2.38346C13.3324 2.74986 13.1675 3.11267 13.2505 3.47189C13.3334 3.83111 13.4545 4.22454 13.6138 4.65217C13.8308 4.18025 13.8932 3.74446 13.801 3.3448Z" fill="#FDDA33"/>
<path fill-rule="evenodd" clip-rule="evenodd" d="M14.5862 5.75C14.2194 5.75 13.9466 6.089 14.025 6.44728L14.4118 8.21501C14.4458 8.37032 14.5408 8.49935 14.6683 8.57918C14.5507 8.67059 14.4691 8.80708 14.4503 8.96483L13.0628 20.6104C13.0373 20.824 13.1329 21.0334 13.3197 21.1402C13.8419 21.4388 14.9742 22 16.1064 22C17.2387 22 18.3709 21.4388 18.8931 21.1402C19.0799 21.0334 19.1755 20.824 19.1501 20.6104L17.7625 8.96483C17.7437 8.80708 17.6621 8.67059 17.5446 8.57918C17.672 8.49935 17.767 8.37032 17.801 8.21501L18.1879 6.44728C18.2663 6.089 17.9934 5.75 17.6267 5.75H14.5862Z" fill="#A7A7A7"/>
<path d="M6.51928 12.0128C6.57086 11.8478 6.7493 11.7549 6.91785 11.8054C7.08639 11.8559 7.18122 12.0307 7.12964 12.1957C7.04041 12.4812 7.04041 12.903 7.13885 13.4548C7.17661 13.6664 7.2215 13.8298 7.27672 13.9742C7.29871 14.0317 7.32146 14.0843 7.35185 14.1497C7.33831 14.1206 7.41249 14.2781 7.43053 14.319C7.52592 14.5349 7.5681 14.7241 7.5681 15.0013C7.5681 15.1739 7.42522 15.3138 7.24895 15.3138C7.07269 15.3138 6.92981 15.1739 6.92981 15.0013C6.92981 14.8118 6.90636 14.7067 6.84471 14.5671C6.83018 14.5343 6.76089 14.3871 6.77098 14.4088C6.73497 14.3314 6.70676 14.2661 6.67896 14.1934C6.60968 14.0123 6.55453 13.8115 6.51007 13.5623C6.39587 12.9222 6.39587 12.4077 6.51928 12.0128Z" fill="#73BE4A"/>
<path fill-rule="evenodd" clip-rule="evenodd" d="M16.2128 16.1792L12.0983 18.9826L13.5498 14.2847L9.55537 11.3194L14.567 11.2194L16.2128 6.58333L17.8586 11.2194L22.8702 11.3194L18.8757 14.2847L20.3273 18.9826L16.2128 16.1792Z" fill="#F7FCFF"/>
<path d="M25.5595 12.4295C25.5079 12.2644 25.3294 12.1716 25.1609 12.2221C24.9923 12.2726 24.8975 12.4473 24.9491 12.6124C25.0383 12.8979 25.0383 13.3196 24.9399 13.8714C24.9021 14.0831 24.8572 14.2465 24.802 14.3909C24.78 14.4484 24.7573 14.501 24.7269 14.5663C24.7404 14.5372 24.6662 14.6948 24.6482 14.7356C24.5528 14.9515 24.5106 15.1407 24.5106 15.4179C24.5106 15.5905 24.6535 15.7304 24.8298 15.7304C25.006 15.7304 25.1489 15.5905 25.1489 15.4179C25.1489 15.2285 25.1724 15.1233 25.234 14.9838C25.2486 14.9509 25.3178 14.8037 25.3078 14.8254C25.3438 14.748 25.372 14.6828 25.3998 14.61C25.4691 14.4289 25.5242 14.2281 25.5687 13.979C25.6829 13.3388 25.6829 12.8244 25.5595 12.4295Z" fill="#73BE4A"/>
<path d="M16.0608 3.14761C16.0608 3.14761 17.2252 3.66635 16.7223 4.4831" stroke="#73BE4A" stroke-linecap="round" stroke-linejoin="round"/>
<path d="M16.9119 3.14761C16.9119 3.14761 18.0762 3.66635 17.5734 4.4831" stroke="#73BE4A" stroke-linecap="round" stroke-linejoin="round"/>
<path d="M9.2598 6.35674C9.34422 6.21061 9.52153 6.16662 9.65584 6.25846C9.79015 6.35031 9.83059 6.54322 9.74617 6.68934C9.5842 6.96969 9.49988 7.35433 9.49988 7.84753C9.49988 8.02012 9.37128 8.16003 9.21265 8.16003C9.05401 8.16003 8.92542 8.02012 8.92542 7.84753C8.92542 7.24479 9.03466 6.74643 9.2598 6.35674Z" fill="#73BE4A"/>
<path d="M8.80848 9.21253C8.80848 9.38512 8.67988 9.52503 8.52124 9.52503C8.36261 9.52503 8.23401 9.38512 8.23401 9.21253V8.32236C8.23401 7.6925 8.33281 7.19647 8.54113 6.83424C8.62528 6.68793 8.80251 6.64353 8.93699 6.73508C9.07147 6.82663 9.11227 7.01945 9.02813 7.16576C8.88527 7.41415 8.80848 7.7997 8.80848 8.32236V9.21253Z" fill="#73BE4A"/>
<path d="M23.4841 8.79588C23.4841 8.96847 23.6127 9.10838 23.7714 9.10838C23.93 9.10838 24.0586 8.96847 24.0586 8.79588V7.90571C24.0586 7.27584 23.9598 6.77981 23.7515 6.41758C23.6673 6.27127 23.4901 6.22688 23.3556 6.31842C23.2211 6.40997 23.1803 6.60279 23.2645 6.7491C23.4073 6.99749 23.4841 7.38304 23.4841 7.90571V8.79588Z" fill="#73BE4A"/>
<path d="M24.3352 10.2542C24.3352 10.4268 24.4638 10.5667 24.6224 10.5667C24.7811 10.5667 24.9097 10.4268 24.9097 10.2542V9.36404C24.9097 8.73417 24.8109 8.23814 24.6025 7.87591C24.5184 7.7296 24.3412 7.68521 24.2067 7.77675C24.0722 7.8683 24.0314 8.06112 24.1155 8.20743C24.2584 8.45582 24.3352 8.84137 24.3352 9.36404V10.2542Z" fill="#73BE4A"/>
</g>
<defs>
<clipPath id="clip0_270_67575">
<rect width="32" height="24" fill="white"/>
</clipPath>
</defs>
</svg>

<svg width="32" height="24" fill="none" xmlns="http://www.w3.org/2000/svg">
  <mask id="a" maskUnits="userSpaceOnUse" x="0" y="0" width="32" height="24">
    <path fill="#fff" d="M0 0h32v24H0z"/>
  </mask>
  <g mask="url(#a)">
    <path fill-rule="evenodd" clip-rule="evenodd" d="M0 0h34v24H0V0z" fill="#2993EC"/>
    <path fill-rule="evenodd" clip-rule="evenodd" d="M6.213 11.583c0 5.293 4.382 9.584 9.787 9.584 5.405 0 9.787-4.29 9.787-9.584C25.787 6.291 21.405 2 16 2c-5.405 0-9.787 4.29-9.787 9.583zm17.447 0c0 4.143-3.43 7.5-7.66 7.5s-7.66-3.357-7.66-7.5c0-4.142 3.43-7.5 7.66-7.5s7.66 3.358 7.66 7.5z" fill="#F1F9FF"/>
    <path fill-rule="evenodd" clip-rule="evenodd" d="M7.064 11.583c0 4.833 4 8.75 8.936 8.75 4.935 0 8.936-3.917 8.936-8.75 0-4.832-4-8.75-8.936-8.75-4.935 0-8.936 3.918-8.936 8.75zm17.447 0c0 4.603-3.81 8.334-8.511 8.334-4.7 0-8.51-3.731-8.51-8.334C7.49 6.981 11.3 3.25 16 3.25c4.7 0 8.51 3.731 8.51 8.333z" fill="#E31D1C"/>
    <path fill-rule="evenodd" clip-rule="evenodd" d="M16 2.208c-.108.223-.162.54-.162.95 0 .41-.159.82-.476 1.231a9.603 9.603 0 01-.089-1.231c0-.37.242-.685.727-.95zm2.236.339c-.155.193-.279.489-.371.888-.092.4-.34.764-.741 1.094.044-.455.108-.861.19-1.22.083-.36.39-.614.922-.762zm1.537 1.62c.186-.365.378-.622.575-.771-.551.015-.911.187-1.078.515a9.605 9.605 0 00-.48 1.138c.469-.222.797-.516.983-.881zm2.418.517c-.226.101-.47.309-.734.623s-.65.527-1.157.637c.246-.384.487-.718.724-1 .237-.282.626-.37 1.167-.26zm.637 2.112c.328-.247.613-.394.855-.442-.502-.228-.9-.231-1.195-.01a9.61 9.61 0 00-.93.813c.519.006.942-.114 1.27-.36zm1.919 1.54c-.248-.012-.56.062-.938.222-.377.16-.817.175-1.32.043.394-.231.76-.419 1.1-.563.34-.144.725-.045 1.158.298zm-.395 2.155c.404-.071.725-.073.963-.006-.344-.43-.698-.615-1.06-.55a9.616 9.616 0 00-1.198.3c.46.242.892.327 1.295.256zM6.084 9.77c.2.145.503.253.907.324.404.071.78.299 1.13.683a9.612 9.612 0 01-1.228-.127c-.363-.064-.633-.357-.809-.88zm1.537-1.583c-.377-.16-.648-.333-.81-.52.053.55.25.896.59 1.04.339.144.728.277 1.168.4-.254-.453-.57-.76-.948-.92zm.406-2.413c.113.22.333.453.66.7.328.247.56.62.698 1.122a9.605 9.605 0 01-1.037-.67c-.295-.223-.402-.606-.32-1.152zm2.098-.726c-.264-.314-.426-.591-.486-.831-.202.514-.184.912.053 1.194.237.283.524.578.86.887-.021-.52-.163-.936-.427-1.25zm1.448-1.982c.005.247.1.553.286.919.187.365.232.803.135 1.314a9.608 9.608 0 01-.638-1.058c-.167-.328-.095-.72.217-1.175zm2.228.279c-.092-.4-.11-.72-.056-.962-.413.367-.577.73-.494 1.089.082.36.204.753.363 1.18.217-.472.28-.908.187-1.307z" fill="#FDDA33"/>
    <path fill-rule="evenodd" clip-rule="evenodd" d="M14.586 5.75a.574.574 0 00-.561.697l.387 1.768a.574.574 0 00.256.364.573.573 0 00-.218.386L13.063 20.61a.53.53 0 00.257.53c.522.299 1.654.86 2.786.86 1.133 0 2.265-.561 2.787-.86a.531.531 0 00.257-.53L17.763 8.965a.574.574 0 00-.218-.386.574.574 0 00.256-.364l.387-1.768a.575.575 0 00-.561-.697h-3.04z" fill="#A7A7A7"/>
    <path d="M6.52 12.013a.32.32 0 01.398-.208c.168.05.263.226.212.39-.09.286-.09.708.009 1.26.038.211.082.375.138.52.022.057.044.11.075.175l.079.169c.095.216.137.405.137.682a.316.316 0 01-.319.313.316.316 0 01-.32-.313.94.94 0 00-.084-.434 13.71 13.71 0 00-.074-.158 3.206 3.206 0 01-.092-.216 3.413 3.413 0 01-.169-.63c-.114-.64-.114-1.155.01-1.55z" fill="#73BE4A"/>
    <path fill-rule="evenodd" clip-rule="evenodd" d="M16.213 16.18l-4.115 2.803 1.452-4.698-3.995-2.966 5.012-.1 1.646-4.636 1.646 4.636 5.011.1-3.994 2.966 1.451 4.698-4.114-2.804z" fill="#F7FCFF"/>
    <path d="M25.56 12.43a.32.32 0 00-.4-.208.311.311 0 00-.21.39c.088.286.088.708-.01 1.26a2.812 2.812 0 01-.138.519c-.022.057-.045.11-.075.175l-.079.17a1.546 1.546 0 00-.137.682c0 .173.143.312.319.312.176 0 .319-.14.319-.312a.94.94 0 01.085-.434l.074-.159c.036-.077.064-.142.092-.215a3.4 3.4 0 00.169-.631c.114-.64.114-1.155-.01-1.55z" fill="#73BE4A"/>
    <path d="M16.06 3.148s1.165.518.662 1.335m.19-1.335s1.164.518.661 1.335" stroke="#73BE4A" stroke-linecap="round" stroke-linejoin="round"/>
    <path d="M9.26 6.357a.274.274 0 01.396-.099.33.33 0 01.09.431c-.162.28-.246.665-.246 1.159 0 .172-.129.312-.287.312-.159 0-.288-.14-.288-.312 0-.603.11-1.102.335-1.491z" fill="#73BE4A"/>
    <path d="M8.808 9.213c0 .172-.128.312-.287.312-.158 0-.287-.14-.287-.312v-.89c0-.63.099-1.127.307-1.489a.274.274 0 01.396-.099.329.329 0 01.091.43c-.143.25-.22.635-.22 1.157v.89zm14.676-.417c0 .172.129.312.287.312.159 0 .288-.14.288-.312v-.89c0-.63-.1-1.126-.308-1.488a.274.274 0 00-.395-.1.329.329 0 00-.091.431c.142.248.22.634.22 1.157v.89z" fill="#73BE4A"/>
    <path d="M24.335 10.254c0 .173.129.313.287.313.16 0 .288-.14.288-.313v-.89c0-.63-.1-1.126-.308-1.488a.274.274 0 00-.395-.1.329.329 0 00-.091.431c.142.249.22.634.22 1.157v.89z" fill="#73BE4A"/>
  </g>
</svg>
